extensions/homeassistant/assets/lan-disconnect.svg

<svg width="24" height="24" viewBox="0 0 24 24" xmlns="http://www.w3.org/2000/svg"><path fill="currentColor" d="M4 1c-1.11 0-2 .89-2 2v4c0 1.11.89 2 2 2H1v2h12V9h-3c1.11 0 2-.89 2-2V3c0-1.11-.89-2-2-2zm0 2h6v4H4zm10 10c-1.11 0-2 .89-2 2v4c0 1.11.89 2 2 2h-3v2h12v-2h-3c1.11 0 2-.89 2-2v-4c0-1.11-.89-2-2-2zm-10.12.46l-1.42 1.42L4.59 17l-2.13 2.12l1.42 1.42L6 18.41l2.12 2.13l1.42-1.42L7.41 17l2.13-2.12l-1.42-1.42L6 15.59zM14 15h6v4h-6z"/></svg>

<svg xmlns="http://www.w3.org/2000/svg" viewBox="0 0 24 24"><path d="M4,1C2.89,1 2,1.89 2,3V7C2,8.11 2.89,9 4,9H1V11H13V9H10C11.11,9 12,8.11 12,7V3C12,1.89 11.11,1 10,1H4M4,3H10V7H4V3M14,13C12.89,13 12,13.89 12,15V19C12,20.11 12.89,21 14,21H11V23H23V21H20C21.11,21 22,20.11 22,19V15C22,13.89 21.11,13 20,13H14M3.88,13.46L2.46,14.88L4.59,17L2.46,19.12L3.88,20.54L6,18.41L8.12,20.54L9.54,19.12L7.41,17L9.54,14.88L8.12,13.46L6,15.59L3.88,13.46M14,15H20V19H14V15Z" /></svg>
